X: 21425
T: Kettle On The Boil
R: mazurka
M: 3/4
K: Dmajor
|:AG|FG AF d z|Bc de dB|AB AF DF|~E3 z AG|
FG AF Dd|Bc de d2|AB AF DF|E/F/E D2:|
|:dc|A/B/c de fd|ef ec A2|A/B/c de fd|e4 dc|
A/B/c de f/a/f|ef ec A/B/A|Bc dB AF|E/F/E D2:|

